svg/fluentui-system-icons/ic_fluent_number_circle_5_32_regular.svg

<svg width="32" height="32" viewBox="0 0 32 32" fill="none" xmlns="http://www.w3.org/2000/svg">
<path d="M13.4985 9C12.9848 9 12.5546 9.38929 12.5035 9.9005L12.0035 14.9005C11.9751 15.1839 12.069 15.4659 12.2614 15.6758C12.4539 15.8857 12.7267 16.0036 13.0115 15.9999L13.1395 15.9984C13.2218 15.9975 13.3403 15.9963 13.4843 15.9951C13.7724 15.9927 14.1617 15.9903 14.5677 15.9903C14.9746 15.9903 15.3939 15.9928 15.7433 15.9999C16.1184 16.0075 16.3461 16.0198 16.4142 16.0294C18.0549 16.26 19.198 17.777 18.9674 19.4177C18.7369 21.0584 17.2199 22.2016 15.5791 21.971C14.6287 21.8374 13.8454 21.2733 13.3979 20.4995C13.1215 20.0214 12.5098 19.8578 12.0317 20.1343C11.5536 20.4107 11.3901 21.0224 11.6665 21.5005C12.4086 22.7841 13.7154 23.7287 15.3008 23.9515C18.0353 24.3358 20.5637 22.4306 20.948 19.6961C21.3323 16.9615 19.4271 14.4332 16.6925 14.0488C16.483 14.0194 16.1276 14.0073 15.7841 14.0003C15.4149 13.9928 14.9802 13.9903 14.5678 13.9903C14.409 13.9903 14.2529 13.9907 14.1044 13.9912L14.4035 11L18.9971 11C19.5494 11 19.9971 10.5523 19.9971 10C19.9971 9.44773 19.5494 9.00001 18.9971 9.00001L13.4985 9ZM16 2C8.26801 2 2 8.26801 2 16C2 23.732 8.26801 30 16 30C23.732 30 30 23.732 30 16C30 8.26801 23.732 2 16 2ZM4 16C4 9.37258 9.37258 4 16 4C22.6274 4 28 9.37258 28 16C28 22.6274 22.6274 28 16 28C9.37258 28 4 22.6274 4 16Z" fill="#212121"/>
</svg>

<svg xmlns="http://www.w3.org/2000/svg" width="32" height="32"><path d="M13.498 9a1 1 0 0 0-.994.9l-.5 5a1 1 0 0 0 1.008 1.1l.127-.002a133.97 133.97 0 0 1 1.429-.008c.407 0 .826.003 1.175.01.375.008.603.02.671.03a3 3 0 1 1-3.016 4.47 1 1 0 1 0-1.732 1 5 5 0 1 0 5.026-7.452 9.24 9.24 0 0 0-.908-.048 62.741 62.741 0 0 0-1.68-.009l.3-2.991h4.593a1 1 0 1 0 0-2H13.5ZM16 2C8.268 2 2 8.268 2 16s6.268 14 14 14 14-6.268 14-14S23.732 2 16 2ZM4 16C4 9.373 9.373 4 16 4s12 5.373 12 12-5.373 12-12 12S4 22.627 4 16Z"/></svg>
